X: 4
T: Men of Harlech, aka. TJD.34
M:2/4
L:1/8
%Q:1/4=80
S:T.J.Dixon MS1, Lincolnshire, 1798
N:Tune used for 'Men of Harlech'
R:Air
A:Lincolnshire, Holton le Moor
Z:vmp.R.Greig2010
F:http://www.village-music-project.org.uk/abc/dixontj.abc
K:G
G>F EE | A>G FD | E2 F2 | G2 z2 |\
G>F EE | A>G FD | E2 F2 | G2 z2 |
cB  cd | ed  cB | cB AG | BA GF |\
G>F EE | A>G FD | E2 F2 | G2 z2 |]
